X:2413
T:My Chaarjyn, gow shiu tastey 
C:Manx National Music carval XXI 
C:Traditional
O:Isle of Man
Z:Kiaull Vannin 413 
L:1/4
M:4/4 
Q:80 
K:D 
A|d>e dF|GB A F|E FD D|D3 d|ff f/e/d|e gfe|dd d/c/B|A3d| 
ff f/e/ d|eg f e|d d d/c/ B|A3 F/A/|d>e d F|G B A F|E F D D|D3|| 

